X:1
T:¡Santo! ¡Santo! ¡Santo! Señor Omnipotente 
T: 
T:Compositor: John Backus Dykes Calvary Songs‎ (1875). p.3
T:Holy, Holy, Holy,  Reginald Heber. The Disciples' Hymn Book (1844), p.323 T. español: J. B. Cabrera.  El nuevo himnario evangélico (1914). p.19 
T:Dominio Público. Basado en https://musescore.com/hymns/santo-santo-santo-seor-omnipotente-reginald-heber y https://hymnary.org/hymn/ENHE1914/page/20
T:Dominio Público. Basado en https://musescore.com/hymns/santo-santo-santo-seor-omnipotente-reginald-heber y https://hymnary.org/hymn/ENHE1914/page/20
T:Dominio Público. Basado en https://musescore.com/hymns/santo-santo-santo-seor-omnipotente-reginald-heber y https://hymnary.org/hymn/ENHE1914/page/20
T:Dominio Público. Basado en https://musescore.com/hymns/santo-santo-santo-seor-omnipotente-reginald-heber y https://hymnary.org/hymn/ENHE1914/page/20
T:Dominio Público. Basado en https://musescore.com/hymns/santo-santo-santo-seor-omnipotente-reginald-heber y https://hymnary.org/hymn/ENHE1914/page/20
C:John Backus Dykes
Z:Reginald Heber.
Z:Dominio Público. Basado en https://musescore.com/hymns/santo-santo-santo-seor-omnipotente-reginald-heber y https://hymnary.org/hymn/ENHE1914/page/20
%%score ( 1 2 3 ) { ( 4 6 ) | 5 }
L:1/8
Q:1/4=100
M:4/4
K:D
V:1 treble nm="Grand Piano, Piano"
V:2 treble 
V:3 treble 
V:4 bass nm="Grand Piano, Piano"
V:6 bass 
V:5 bass 
V:1
 [A,D]2 [A,D]2 [DF]2 [DF]2 | A4 z4 | [B,B]2 [CB]2 [DB]2 [EB]2 | [FA]4 [DF]4 | A4 z4 | d4 z4 | %6
w: !San- to! ¡San- to!~|¡Sa-|ñor om- ni- po-|ten- te,~||mi-|
 E2 [CA]2 [DB]3 [CA] | [CA]8 | [A,D]2 [A,D]2 [DF]2 [DF]2 | A4 z4 | B4 z4 | [FA]4 [DA]4 | %12
w: o- res~ te~ da-|rá.~|¡San to!~ ¡San to!~|||ren- te,~|
 [Dd]2 [Dd]2 [DA]2 [DA]2 | [DB]4 [DF]2 [=CF]2 | [B,G]2 [B,E]2 [CE]3 D | D8 | %16
w: Dios~ en~ tres~ per-|so- nas,~ ben-|di- ta~ Tri- ni-|dad.~|
 [A,D]2 [A,D]2 [DF]2 [DF]2 | A4 z4 | [B,B]2 [CB]2 [DB]2 [EB]2 | [FA]4 [DF]4 | A4 z4 | d4 z4 | %22
w: !San- to! ¡San- to!~||nu- me- ro- so|co- ro|San-||
 E2 [CA]2 [DB]3 [CA] | [CA]8 | [A,D]2 [A,D]2 [DF]2 [DF]2 | A4 z4 | B4 z4 | [FA]4 [DA]4 | %28
w: do- ran con fer-|vor|De/a- le- grí- a||sus|o- ro.|
 [Dd]2 [Dd]2 [DA]2 [DA]2 | [DB]4 [DF]2 [=CF]2 | [B,G]2 [B,E]2 [CE]3 D | D8 | %32
w: Rin- den ante el|tro- no glo-|rio- so del Se-|ñor|
 [A,D]2 [A,D]2 [DF]2 [DF]2 | A4 z4 | [B,B]2 [CB]2 [DB]2 [EB]2 | [FA]4 [DF]4 | A4 z4 | d4 z4 | %38
w: !San- to! ¡San- to!~|¡San-|men- sa mu- che-|dum- bre|||
 E2 [CA]2 [DB]3 [CA] | [CA]8 | [A,D]2 [A,D]2 [DF]2 [DF]2 | A4 z4 | B4 z4 | [FA]4 [DA]4 | %44
w: san- ta vo- lun-|tad|An- te ti se|pos-||lum- bre.|
 [Dd]2 [Dd]2 [DA]2 [DA]2 | [DB]4 [DF]2 [=CF]2 | [B,G]2 [B,E]2 [CE]3 D | D8 | %48
w: An- te Ti que/has|si- do que|e- res y se-|rás|
 [A,D]2 [A,D]2 [DF]2 [DF]2 | A4 z4 | [B,B]2 [CB]2 [DB]2 [EB]2 | [FA]4 [DF]4 | A4 z2 z2 | d4 z4 | %54
w: !San- to! ¡San- to!~|¡Sa-|más que estés ve-|la- do|E||
 E2 [CA]2 [DB]3 [CA] | [CA]8 | [A,D]2 [A,D]2 [DF]2 [DF]2 | A4 z4 | B4 z4 | [FA]4 [DA]4 | %60
w: glo- ria con- tem-|plar|San- to Tú eres|so-|na-|la- do|
 [Dd]2 [Dd]2 [DA]2 [DA]2 | [DB]4 [DF]2 [=CF]2 | [B,G]2 [B,E]2 [CE]3 D | D8 | %64
w: En po- der per-|fec- to, pu-|reza y ca- ri-|dad|
 [A,D]2 [A,D]2 [DF]2 [DF]2 | A4 z4 | [B,B]2 [CB]2 [DB]2 [EB]2 | [FA]4 [DF]4 | A4 z2 z2 | d4 z4 | %70
w: !San- to! ¡San- to!~|¡Sa-|glo- ria de tu|nom- bre|Ve-||
 E2 [CA]2 [DB]3 [CA] | [CA]8 | [A,D]2 [A,D]2 [DF]2 [DF]2 | A4 z4 | B4 z4 | [FA]4 [DA]4 | %76
w: cie- lo tie- rra/y|mar|¡San- to! ¡San- to!|¡Sa-||hom- bre|
 [Dd]2 [Dd]2 [DA]2 [DA]2 | [DB]4 [DF]2 [=CF]2 | [B,G]2 [B,E]2 [CE]3 D | D8 |] %80
w: Dios en tres per-|so- nas Ben-|di- ta tri- ni-|dad|
V:2
 x8 | C2 E2 [DA]2 [CA]2 | x8 | x8 | E2 z A [FA]2 [EA]2 | D2 E2 [Ec]2 [FA]2 | x8 | x8 | x8 | %9
w: |* an * Se-|||siem- pre\_el~ * bio~|* i- o lo-||||
 C2 E2 [DA]2 [CA]2 | B,2 z B [DB]2 [EB]2 | x8 | x8 | x8 | x8 | x8 | x8 | C2 E2 [DA]2 [CA]2 | x8 | %19
w: ¡San * * te\_a-|do- ro~ * ve-|||||||!San- * to! El||
 x8 | E2 z A [FA]2 [EA]2 | D2 E2 [Ec]2 [FA]2 | x8 | x8 | x8 | C2 E2 [DA]2 [CA]2 | %26
w: |* tos es- co-|gi- dos te a-||||lle- * nos y|
 B,2 z B [DB]2 [EB]2 | x8 | x8 | x8 | x8 | x8 | x8 | C2 E2 [DA]2 [CA]2 | x8 | x8 | %36
w: * coro~- nas de|||||||* * * La/in-|||
 E2 z A [FA]2 [EA]2 | D2 E2 [Ec]2 [FA]2 | x8 | x8 | x8 | C2 E2 [DA]2 [CA]2 | B,2 z B [DB]2 [EB]2 | %43
w: De/an- ge- les que|cu- m- plen Tu||||* * * ba-|ña- da con tu|
 x8 | x8 | x8 | x8 | x8 | x8 | C2 E2 [DA]2 [CA]2 | x8 | x8 | E2 z A [FA]2 [EA]2 | %53
w: ||||||* n- to! Por|||* po- si- ble|
 D2 E2 [Ec]2 [FA]2 | x8 | x8 | x8 | C2 E2 [DA]2 [CA]2 | B,2 z B [DB]2 [EB]2 | x8 | x8 | x8 | x8 | %63
w: s- e- a tu||||* o- lo y|* hay a Tu|||||
 x8 | x8 | C2 E2 [DA]2 [CA]2 | x8 | x8 | E2 z A [FA]2 [EA]2 | D2 E2 [Ec]2 [FA]2 | x8 | x8 | x8 | %73
w: ||* n- to! La|||* mos en tus|o- o- bras en||||
 C2 E2 [DA]2 [CA]2 | B,2 z B [DB]2 [EB]2 | x8 | x8 | x8 | x8 | x8 |] %80
w: * n- to te/a|do- rá to- do||||||
V:3
 x8 | x8 | x8 | x8 | z2 E2 z4 | x8 | x8 | x8 | x8 | x8 | z2 C2 z4 | x8 | x8 | x8 | x8 | x8 | x8 | %17
w: |||||||||||||||||
 x8 | x8 | x8 | z2 E2 z4 | x8 | x8 | x8 | x8 | x8 | z2 C2 z4 | x8 | x8 | x8 | x8 | x8 | x8 | x8 | %34
w: |||||||||||||||||
 x8 | x8 | z2 E2 z4 | x8 | x8 | x8 | x8 | x8 | z2 C2 z4 | x8 | x8 | x8 | x8 | x8 | x8 | x8 | x8 | %51
w: |||||||||||||||||
 x8 | z2 E2 z4 | x8 | x8 | x8 | x8 | x8 | z2 C2 z4 | x8 | x8 | x8 | x8 | x8 | x8 | x8 | x8 | x8 | %68
w: |im-||||||da||||||||||
 z2 E2 z4 | x8 | x8 | x8 | x8 | x8 | z2 C2 z4 | x8 | x8 | x8 | x8 | x8 |] %80
w: e-||||||ra||||||
V:4
 F,2 F,2 D,2 D,2 | E,2 G,2 F,2 A,2 | G,2 A,2 B,2 C2 | D2 A,2 A,4 | A,2 A,2 A,2 A,2 | %5
 F,2 ^G,2 A,2 A,2 | C2 A,2 ^G,3 A, | A,4 G,4 | F,2 F,2 D,2 D,2 | E,2 G,2 F,2 A,2 | z2 A,2 z4 | %11
 D2 A,2 F,4 | F,2 G,2 A,2 =C2 | B,4 A,2 A,2 | G,2 G,2 G,3 F, | F,8 | F,2 F,2 D,2 D,2 | %17
 E,2 G,2 F,2 A,2 | G,2 A,2 B,2 C2 | D2 A,2 A,4 | A,2 A,2 A,2 A,2 | F,2 ^G,2 A,2 A,2 | %22
 C2 A,2 ^G,3 A, | A,4 G,4 | F,2 F,2 D,2 D,2 | E,2 G,2 F,2 A,2 | z2 A,2 z4 | D2 A,2 F,4 | %28
 F,2 G,2 A,2 =C2 | B,4 A,2 A,2 | G,2 G,2 G,3 F, | F,8 | F,2 F,2 D,2 D,2 | E,2 G,2 F,2 A,2 | %34
 G,2 A,2 B,2 C2 | D2 A,2 A,4 | A,2 A,2 A,2 A,2 | F,2 ^G,2 A,2 A,2 | C2 A,2 ^G,3 A, | A,4 G,4 | %40
 F,2 F,2 D,2 D,2 | E,2 G,2 F,2 A,2 | z2 A,2 z4 | D2 A,2 F,4 | F,2 G,2 A,2 =C2 | B,4 A,2 A,2 | %46
 G,2 G,2 G,3 F, | F,8 | F,2 F,2 D,2 D,2 | E,2 G,2 F,2 A,2 | G,2 A,2 B,2 C2 | D2 A,2 A,4 | %52
 A,2 A,2 A,2 A,2 | F,2 ^G,2 A,2 A,2 | C2 A,2 ^G,3 A, | A,4 G,4 | F,2 F,2 D,2 D,2 | %57
 E,2 G,2 F,2 A,2 | z2 A,2 z4 | D2 A,2 F,4 | F,2 G,2 A,2 =C2 | B,4 A,2 A,2 | G,2 G,2 G,3 F, | F,8 | %64
 F,2 F,2 D,2 D,2 | E,2 G,2 F,2 A,2 | G,2 A,2 B,2 C2 | D2 A,2 A,4 | A,2 A,2 A,2 A,2 | %69
 F,2 ^G,2 A,2 A,2 | C2 A,2 ^G,3 A, | A,4 G,4 | F,2 F,2 D,2 D,2 | E,2 G,2 F,2 A,2 | z2 A,2 z4 | %75
 D2 A,2 F,4 | F,2 G,2 A,2 =C2 | B,4 A,2 A,2 | G,2 G,2 G,3 F, | F,8 |] %80
V:5
 D,2 D,2 B,,2 B,,2 | A,,4 D,2 D,2 | G,,2 G,,2 G,2 G,2 | D,4 D,4 | C,2 C,2 D,2 C,2 | B,,4 C,2 D,2 | %6
 E,2 E,2 E,3 A,, | A,,8 | D,2 D,2 B,,2 B,,2 | A,,4 D,2 D,2 | G,,4 G,2 G,2 | D,4 D,4 | %12
 B,,2 B,,2 F,,2 F,,2 | G,,4 D,2 D,2 | G,,2 G,,2 A,,3 D, | D,8 | D,2 D,2 B,,2 B,,2 | A,,4 D,2 D,2 | %18
 G,,2 G,,2 G,2 G,2 | D,4 D,4 | C,2 C,2 D,2 C,2 | B,,4 C,2 D,2 | E,2 E,2 E,3 A,, | A,,8 | %24
 D,2 D,2 B,,2 B,,2 | A,,4 D,2 D,2 | G,,4 G,2 G,2 | D,4 D,4 | B,,2 B,,2 F,,2 F,,2 | G,,4 D,2 D,2 | %30
 G,,2 G,,2 A,,3 D, | D,8 | D,2 D,2 B,,2 B,,2 | A,,4 D,2 D,2 | G,,2 G,,2 G,2 G,2 | D,4 D,4 | %36
 C,2 C,2 D,2 C,2 | B,,4 C,2 D,2 | E,2 E,2 E,3 A,, | A,,8 | D,2 D,2 B,,2 B,,2 | A,,4 D,2 D,2 | %42
 G,,4 G,2 G,2 | D,4 D,4 | B,,2 B,,2 F,,2 F,,2 | G,,4 D,2 D,2 | G,,2 G,,2 A,,3 D, | D,8 | %48
 D,2 D,2 B,,2 B,,2 | A,,4 D,2 D,2 | G,,2 G,,2 G,2 G,2 | D,4 D,4 | C,2 C,2 D,2 C,2 | B,,4 C,2 D,2 | %54
 E,2 E,2 E,3 A,, | A,,8 | D,2 D,2 B,,2 B,,2 | A,,4 D,2 D,2 | G,,4 G,2 G,2 | D,4 D,4 | %60
 B,,2 B,,2 F,,2 F,,2 | G,,4 D,2 D,2 | G,,2 G,,2 A,,3 D, | D,8 | D,2 D,2 B,,2 B,,2 | A,,4 D,2 D,2 | %66
 G,,2 G,,2 G,2 G,2 | D,4 D,4 | C,2 C,2 D,2 C,2 | B,,4 C,2 D,2 | E,2 E,2 E,3 A,, | A,,8 | %72
 D,2 D,2 B,,2 B,,2 | A,,4 D,2 D,2 | G,,4 G,2 G,2 | D,4 D,4 | B,,2 B,,2 F,,2 F,,2 | G,,4 D,2 D,2 | %78
 G,,2 G,,2 A,,3 D, | D,8 |] %80
V:6
 x8 | x8 | x8 | x8 | x8 | x8 | x8 | x8 | x8 | x8 | G,2 z G,, B,2 C2 | x8 | x8 | x8 | x8 | x8 | x8 | %17
 x8 | x8 | x8 | x8 | x8 | x8 | x8 | x8 | x8 | G,2 z G,, B,2 C2 | x8 | x8 | x8 | x8 | x8 | x8 | x8 | %34
 x8 | x8 | x8 | x8 | x8 | x8 | x8 | x8 | G,2 z G,, B,2 C2 | x8 | x8 | x8 | x8 | x8 | x8 | x8 | x8 | %51
 x8 | x8 | x8 | x8 | x8 | x8 | x8 | G,2 z G,, B,2 C2 | x8 | x8 | x8 | x8 | x8 | x8 | x8 | x8 | x8 | %68
 x8 | x8 | x8 | x8 | x8 | x8 | G,2 z G,, B,2 C2 | x8 | x8 | x8 | x8 | x8 |] %80

